X: 1149
T: An Buachaillin Dreoite
R: jig
M: 6/8
K: Gmajor
D.G.G ~A2 G|~A2 G G2 A|D.G.G ~A2 G|cAG FDc|
D.G.G ~A2 G|~A2 G GBd|~f3 gfd|1 cAD FGA:|2 cAF G3||
A|B3 cBc|.e.cA G3|B3 GBd|cAG FGA|
BAB cBc|d^cd efg|.a2 f gfd|cAG G3:|

